raw/symbols/ada.svg

<svg width="42" height="42" viewBox="0 0 42 42" fill="none" xmlns="http://www.w3.org/2000/svg">
<circle cx="21" cy="21" r="21" fill="#0133AD"/>
<path d="M14.2236 20.9022C14.1596 22.0133 15.0155 22.9646 16.1275 23.0285C16.1675 23.0285 16.2075 23.0285 16.2475 23.0285C17.3674 23.0285 18.2714 22.1252 18.2634 21.0061C18.2634 19.887 17.3594 18.9838 16.2395 18.9918C15.1675 18.9918 14.2796 19.8311 14.2236 20.9022Z" fill="#F3F3F3"/>
<path d="M6.68864 20.3789C6.32866 20.3549 6.01667 20.6349 6.00067 20.9948C5.98467 21.3548 6.25666 21.6668 6.61664 21.6828C6.97663 21.7068 7.28061 21.4268 7.30461 21.0668C7.32861 20.7069 7.04862 20.4029 6.68864 20.3789Z" fill="#F3F3F3"/>
<path d="M14.0973 9.18214C14.4173 9.02215 14.5453 8.62216 14.3853 8.30218C14.2253 7.98219 13.8253 7.8542 13.5053 8.01419C13.1853 8.17418 13.0573 8.56617 13.2173 8.88615C13.3773 9.21414 13.7693 9.35013 14.0973 9.18214C14.0893 9.18214 14.0973 9.18214 14.0973 9.18214Z" fill="#F3F3F3"/>
<path d="M16.1449 12.7533C16.6409 12.5055 16.8409 11.898 16.5929 11.4024C16.3449 10.9068 15.7369 10.7069 15.2409 10.9547C14.745 11.2025 14.545 11.8101 14.793 12.3057C15.0409 12.8013 15.6489 13.0011 16.1449 12.7533Z" fill="#F3F3F3"/>
<path d="M9.24898 15.2083C9.63297 15.4561 10.1449 15.3521 10.4009 14.9685C10.6489 14.5848 10.5449 14.0732 10.1609 13.8174C9.77696 13.5696 9.26498 13.6735 9.009 14.0572C8.75301 14.4409 8.865 14.9605 9.24898 15.2083Z" fill="#F3F3F3"/>
<path d="M10.4714 20.0227C9.91144 19.9907 9.43946 20.4144 9.40746 20.9739C9.37546 21.5335 9.79944 22.0051 10.3594 22.0371C10.9194 22.0691 11.3914 21.6454 11.4234 21.0858C11.4554 20.5343 11.0314 20.0547 10.4714 20.0227Z" fill="#F3F3F3"/>
<path d="M9.36023 26.7898C8.95225 26.9976 8.78425 27.4932 8.99224 27.9089C9.20023 28.3166 9.69621 28.4844 10.1122 28.2766C10.5202 28.0688 10.6882 27.5732 10.4802 27.1575C10.2722 26.7498 9.76821 26.582 9.36023 26.7898Z" fill="#F3F3F3"/>
<path d="M13.2797 17.9341C13.8317 18.2938 14.5677 18.1419 14.9196 17.5904C15.2796 17.0388 15.1276 16.3034 14.5757 15.9517C14.0237 15.592 13.2877 15.7439 12.9357 16.2954C12.5757 16.839 12.7277 17.5744 13.2797 17.9341Z" fill="#F3F3F3"/>
<path d="M25.7187 12.6751C26.1827 12.9789 26.8147 12.851 27.1186 12.3874C27.4226 11.9237 27.2946 11.2922 26.8307 10.9885C26.3667 10.6847 25.7347 10.8126 25.4307 11.2763C25.1187 11.7479 25.2467 12.3714 25.7187 12.6751Z" fill="#F3F3F3"/>
<path d="M27.7831 9.11975C28.0871 9.31974 28.4871 9.23174 28.6871 8.92775C28.8871 8.62377 28.7991 8.22379 28.4951 8.0238C28.1911 7.8238 27.7911 7.9118 27.5911 8.20779C27.3991 8.51177 27.4871 8.91976 27.7831 9.11975Z" fill="#F3F3F3"/>
<path d="M25.873 18.9755C24.761 18.9116 23.8011 19.7669 23.7451 20.878C23.6811 21.9891 24.537 22.9484 25.649 23.0043C25.689 23.0043 25.729 23.0043 25.761 23.0043C26.8729 23.0043 27.7769 22.101 27.7769 20.9819C27.7849 19.9188 26.9449 19.0315 25.873 18.9755Z" fill="#F3F3F3"/>
<path d="M16.8087 17.7895C17.1526 18.4689 17.8486 18.9006 18.6166 18.9006C19.7285 18.9006 20.6325 17.9973 20.6325 16.8782C20.6325 16.5665 20.5605 16.2547 20.4165 15.967C19.9125 14.9678 18.6966 14.5681 17.7046 15.0717C16.7047 15.5833 16.3047 16.7983 16.8087 17.7895Z" fill="#F3F3F3"/>
<path d="M32.6387 15.209C33.0466 15.0012 33.2066 14.4976 32.9986 14.0899C32.7906 13.6822 32.2867 13.5223 31.8787 13.7302C31.4707 13.938 31.3107 14.4336 31.5107 14.8413C31.7267 15.249 32.2227 15.4168 32.6387 15.209Z" fill="#F3F3F3"/>
<path d="M27.5192 15.8458C26.9352 16.1415 26.6952 16.853 26.9912 17.4365C27.2872 18.02 27.9992 18.2598 28.5832 17.9641C29.1671 17.6683 29.4071 16.9569 29.1111 16.3734C28.8151 15.7898 28.1032 15.558 27.5192 15.8458Z" fill="#F3F3F3"/>
<path d="M20.9209 8.81375C21.3768 8.83773 21.7688 8.48601 21.8008 8.03038C21.8328 7.57474 21.4728 7.18306 21.0169 7.15108C20.5609 7.1271 20.1689 7.47083 20.1369 7.92646C20.1129 8.39009 20.4649 8.78178 20.9209 8.81375Z" fill="#F3F3F3"/>
<path d="M20.9129 14.0314C21.5689 14.0714 22.1289 13.5678 22.1609 12.9123C22.2009 12.2568 21.6969 11.6973 21.0409 11.6653C20.3849 11.6253 19.825 12.1289 19.793 12.7844C19.761 13.4399 20.2569 13.9994 20.9129 14.0314Z" fill="#F3F3F3"/>
<path d="M14.4791 26.15C15.0631 25.8542 15.3031 25.1428 15.0071 24.5592C14.7111 23.9757 13.9992 23.7359 13.4152 24.0317C12.8312 24.3274 12.5912 25.0388 12.8872 25.6224C13.1832 26.2059 13.8952 26.4457 14.4791 26.15Z" fill="#F3F3F3"/>
<path d="M21.6809 15.7702C21.073 16.7054 21.329 17.9524 22.2649 18.5599C23.2009 19.1674 24.4488 18.9116 25.0568 17.9764C25.6648 17.0411 25.4088 15.7941 24.4728 15.1866C24.1448 14.9708 23.7608 14.8589 23.3689 14.8589C22.6889 14.8589 22.0569 15.2026 21.6809 15.7702Z" fill="#F3F3F3"/>
<path d="M25.1919 24.2079C24.6879 23.2087 23.472 22.809 22.48 23.3126C21.48 23.8162 21.0801 25.0313 21.584 26.0225C22.088 27.0217 23.304 27.4213 24.2959 26.9177C25.2879 26.4221 25.6959 25.2231 25.1999 24.2239C25.1999 24.2159 25.1999 24.2159 25.1919 24.2079Z" fill="#F3F3F3"/>
<path d="M28.7187 24.0655C28.1667 23.7058 27.4308 23.8576 27.0788 24.4092C26.7188 24.9607 26.8708 25.6962 27.4228 26.0479C27.9748 26.4076 28.7107 26.2557 29.0627 25.7042C29.4227 25.1606 29.2707 24.4252 28.7187 24.0655Z" fill="#F3F3F3"/>
<path d="M32.5904 21.037C32.6224 20.4775 32.1984 20.0058 31.6384 19.9739C31.0784 19.9419 30.6065 20.3656 30.5745 20.9251C30.5425 21.4847 30.9664 21.9563 31.5264 21.9883C32.0784 22.0202 32.5584 21.5886 32.5904 21.037Z" fill="#F3F3F3"/>
<path d="M35.3825 20.3154C35.0225 20.2914 34.7105 20.5714 34.6945 20.9314C34.6785 21.2914 34.9505 21.6033 35.3105 21.6193C35.6705 21.6433 35.9745 21.3634 35.9985 21.0034C36.0145 20.6434 35.7425 20.3394 35.3825 20.3154Z" fill="#F3F3F3"/>
<path d="M32.7526 26.791C32.3686 26.5432 31.8567 26.6471 31.6007 27.0308C31.3527 27.4145 31.4567 27.9261 31.8407 28.1819C32.2247 28.4297 32.7366 28.3258 32.9926 27.9421C33.2486 27.5584 33.1366 27.0388 32.7526 26.791Z" fill="#F3F3F3"/>
<path d="M14.209 32.8827C13.905 32.6827 13.505 32.7707 13.305 33.0667C13.1051 33.3707 13.193 33.7706 13.489 33.9706C13.793 34.1706 14.193 34.0826 14.393 33.7866C14.601 33.4907 14.513 33.0827 14.209 32.8827Z" fill="#F3F3F3"/>
<path d="M27.9047 32.8178C27.5847 32.9778 27.4567 33.3778 27.6167 33.6978C27.7767 34.0177 28.1767 34.1457 28.4967 33.9857C28.8167 33.8258 28.9447 33.4338 28.7847 33.1138C28.6247 32.7858 28.2327 32.6498 27.9047 32.8178C27.9127 32.8178 27.9047 32.8178 27.9047 32.8178Z" fill="#F3F3F3"/>
<path d="M20.3198 26.2316C20.9278 25.2964 20.6718 24.0494 19.7358 23.4339C18.7999 22.8264 17.5519 23.0821 16.9359 24.0174C16.32 24.9526 16.584 26.1996 17.5199 26.8152C17.8479 27.031 18.2319 27.1429 18.6239 27.1429C19.3118 27.1509 19.9438 26.8072 20.3198 26.2316Z" fill="#F3F3F3"/>
<path d="M16.2806 29.3244C15.8167 29.0207 15.1847 29.1486 14.8807 29.6122C14.5767 30.0758 14.7047 30.7073 15.1687 31.0111C15.6327 31.3148 16.2646 31.1869 16.5686 30.7233C16.8806 30.2597 16.7526 29.6282 16.2806 29.3244Z" fill="#F3F3F3"/>
<path d="M20.9908 33.1862C20.5348 33.1622 20.1429 33.514 20.1109 33.9696C20.0789 34.4252 20.4389 34.8169 20.8948 34.8489C21.3508 34.8729 21.7428 34.5291 21.7748 34.0735C21.7988 33.6099 21.4468 33.2182 20.9908 33.1862Z" fill="#F3F3F3"/>
<path d="M21.0002 27.9666C20.3442 27.9266 19.7842 28.4302 19.7522 29.0857C19.7122 29.7412 20.2162 30.3007 20.8722 30.3327C21.5281 30.3647 22.0881 29.8691 22.1201 29.2136C22.1601 28.5661 21.6561 27.9986 21.0002 27.9666Z" fill="#F3F3F3"/>
<path d="M25.8558 29.2451C25.3598 29.5009 25.1598 30.1084 25.4158 30.604C25.6718 31.0996 26.2798 31.2995 26.7758 31.0437C27.2717 30.7959 27.4717 30.1884 27.2237 29.6928C26.9677 29.1972 26.3598 28.9893 25.8558 29.2451Z" fill="#F3F3F3"/>
</svg>

<svg xmlns="http://www.w3.org/2000/svg" width="42" height="42" fill="none"><circle cx="21" cy="21" r="21" fill="#0133AD"/><path fill="#F3F3F3" d="M14.224 20.902a2.02 2.02 0 0 0 1.904 2.127h.12c1.12 0 2.023-.904 2.015-2.023 0-1.119-.904-2.022-2.024-2.014-1.072 0-1.96.84-2.015 1.91ZM6.689 20.379a.653.653 0 1 0-.071 1.303.653.653 0 0 0 .07-1.303ZM14.097 9.182a.66.66 0 0 0 .288-.88.66.66 0 0 0-.88-.288.65.65 0 0 0-.288.872c.16.328.552.464.88.296-.008 0 0 0 0 0ZM16.145 12.753c.496-.248.696-.855.448-1.35a1.01 1.01 0 0 0-1.352-.448 1.008 1.008 0 0 0-.448 1.35 1.01 1.01 0 0 0 1.352.448ZM9.249 15.208a.837.837 0 0 0 1.152-.24.836.836 0 0 0-.24-1.15.837.837 0 0 0-1.152.24.827.827 0 0 0 .24 1.15ZM10.471 20.023a1.005 1.005 0 0 0-1.064.95c-.032.56.392 1.032.952 1.064a1.01 1.01 0 0 0 .112-2.014ZM9.36 26.79a.833.833 0 1 0 .753 1.487.833.833 0 0 0-.753-1.487ZM13.28 17.934c.552.36 1.288.208 1.64-.344a1.176 1.176 0 0 0-.344-1.638 1.178 1.178 0 0 0-1.64.343 1.179 1.179 0 0 0 .344 1.64ZM25.719 12.675a1.015 1.015 0 0 0 1.4-.288 1.014 1.014 0 0 0-.288-1.399 1.016 1.016 0 0 0-1.4.288.998.998 0 0 0 .288 1.4ZM27.783 9.12a.65.65 0 0 0 .904-.192.65.65 0 0 0-.192-.904.655.655 0 0 0-.904.184.674.674 0 0 0 .192.912ZM25.873 18.976a2.015 2.015 0 0 0-2.128 1.902 2.015 2.015 0 0 0 1.904 2.126h.112a2.019 2.019 0 0 0 2.016-2.022 2.004 2.004 0 0 0-1.904-2.006ZM16.809 17.79a2.019 2.019 0 0 0 3.824-.911c0-.312-.073-.624-.217-.912a2.017 2.017 0 0 0-2.711-.895c-1 .511-1.4 1.726-.896 2.718ZM32.639 15.209a.833.833 0 0 0 .36-1.12.834.834 0 0 0-1.488.752.846.846 0 0 0 1.128.368ZM27.52 15.846a1.185 1.185 0 1 0 1.063 2.118 1.185 1.185 0 0 0 .528-1.59 1.194 1.194 0 0 0-1.592-.528ZM20.92 8.814a.843.843 0 0 0 .88-.784.837.837 0 0 0-.783-.879.836.836 0 0 0-.88.775.845.845 0 0 0 .784.888ZM20.913 14.031a1.178 1.178 0 0 0 1.248-1.119 1.177 1.177 0 0 0-1.12-1.247 1.178 1.178 0 0 0-1.248 1.12 1.183 1.183 0 0 0 1.12 1.246ZM14.48 26.15a1.185 1.185 0 1 0-1.065-2.118 1.185 1.185 0 1 0 1.064 2.118ZM21.68 15.77a2.012 2.012 0 0 0 .585 2.79 2.015 2.015 0 0 0 2.792-.584 2.012 2.012 0 0 0-1.688-3.117c-.68 0-1.312.344-1.688.911ZM25.192 24.208a2.017 2.017 0 0 0-2.712-.895c-1 .503-1.4 1.718-.896 2.71.504.999 1.72 1.398 2.712.895a2.008 2.008 0 0 0 .904-2.694c0-.008 0-.008-.008-.016ZM28.719 24.066a1.178 1.178 0 0 0-1.64.343 1.176 1.176 0 0 0 .344 1.639c.552.36 1.288.208 1.64-.344a1.179 1.179 0 0 0-.344-1.639ZM32.59 21.037a1.005 1.005 0 0 0-.952-1.063 1.005 1.005 0 0 0-1.064.951c-.032.56.392 1.031.952 1.063.552.032 1.032-.4 1.064-.951ZM35.383 20.315a.653.653 0 1 0 .616.688.658.658 0 0 0-.617-.688ZM32.753 26.791a.837.837 0 0 0-1.152.24.836.836 0 0 0 .24 1.15.837.837 0 0 0 1.152-.239.827.827 0 0 0-.24-1.151ZM14.209 32.883a.655.655 0 0 0-.904.184.655.655 0 0 0 .184.904c.304.2.704.112.904-.184a.642.642 0 0 0-.184-.904ZM27.905 32.818a.66.66 0 0 0-.288.88c.16.32.56.448.88.288a.65.65 0 0 0 .288-.872.647.647 0 0 0-.88-.296c.008 0 0 0 0 0ZM20.32 26.232a2.022 2.022 0 1 0-2.8.583c.328.216.712.328 1.104.328a1.991 1.991 0 0 0 1.696-.911ZM16.28 29.324a1.016 1.016 0 0 0-1.4.288 1.014 1.014 0 0 0 .289 1.4 1.016 1.016 0 0 0 1.4-.289 1 1 0 0 0-.288-1.399ZM20.99 33.186a.843.843 0 0 0-.88.784.837.837 0 0 0 .785.879.836.836 0 0 0 .88-.775.845.845 0 0 0-.784-.888ZM21 27.967a1.178 1.178 0 0 0-1.248 1.119 1.177 1.177 0 0 0 1.12 1.247 1.183 1.183 0 0 0 1.248-1.12A1.182 1.182 0 0 0 21 27.968ZM25.856 29.245a1.01 1.01 0 1 0 .92 1.799c.496-.248.696-.856.448-1.351a1.021 1.021 0 0 0-1.368-.448Z"/></svg>
